; generated by Slic3r 1.2.9 on 2018-10-31 at 13:08:52

; external perimeters extrusion width = 0.40mm
; perimeters extrusion width = 0.67mm
; infill extrusion width = 0.67mm
; solid infill extrusion width = 0.67mm
; top infill extrusion width = 0.67mm

M107
M140 S60;
M190 S60;
M104 S215;
M109 S215;
G21; set mm units
G92 E0;
G90;
G28 ; home all
G29; Bed Level calibration
G1 X0 Y0 Z0.4
G1 E5 F1200 ; Prime extruder 3mm
G1 X0 Y0 E4.0 F1000.0 ; prime
G1 X100.0 E8.5 F1000.0 ; prime
G92 E0
G21 ; set units to millimeters
G90 ; use absolute coordinates
M82 ; use absolute distances for extrusion
G92 E0
G1 Z0.200 F3600.000
G1 E-1.00000 F1800.00000
G92 E0
G1 X95.200 Y95.200 F3600.000
G1 E1.00000 F1800.00000
G1 X114.800 Y95.200 E1.58195 F1800.000
G1 X114.800 Y114.800 E2.16390
G1 X95.200 Y114.800 E2.74585 F1800.000
G1 X95.200 Y95.260 E3.32602
G1 X95.599 Y114.592 F3600.000
G1 X95.408 Y114.401 E3.33408 F1800.000
G1 X95.408 Y113.894 E3.34916
G1 X96.106 Y114.592 E3.37855
G1 X96.612 Y114.592 E3.39363
G1 X95.408 Y113.388 E3.44436
G1 X95.408 Y112.881 E3.45944
G1 X97.119 Y114.592 E3.53149
G1 X97.625 Y114.592 E3.54657
G1 X95.408 Y112.375 E3.63996
G1 X95.408 Y111.868 E3.65504
G1 X98.132 Y114.592 E3.76975
G1 X98.638 Y114.592 E3.78483
G1 X95.408 Y111.362 E3.92087
G1 X95.408 Y110.855 E3.93596
G1 X99.145 Y114.592 E4.09333
G1 X99.651 Y114.592 E4.10841
G1 X95.408 Y110.349 E4.28711
G1 X95.408 Y109.842 E4.30220
G1 X100.158 Y114.592 E4.50223
G1 X100.664 Y114.592 E4.51731
G1 X95.408 Y109.336 E4.73867
G1 X95.408 Y108.830 E4.75375
G1 X101.170 Y114.592 E4.99645
G1 X101.677 Y114.592 E5.01153
G1 X95.408 Y108.323 E5.27555
G1 X95.408 Y107.817 E5.29063
G1 X102.183 Y114.592 E5.57598
G1 X102.690 Y114.592 E5.59107
G1 X95.408 Y107.310 E5.89775
G1 X95.408 Y106.804 E5.91283
G1 X103.196 Y114.592 E6.24084
G1 X103.703 Y114.592 E6.25592
G1 X95.408 Y106.297 E6.60527
G1 X95.408 Y105.791 E6.62035
G1 X104.209 Y114.592 E6.99102
G1 X104.716 Y114.592 E7.00610
G1 X95.408 Y105.284 E7.39810
G1 X95.408 Y104.778 E7.41319
G1 X105.222 Y114.592 E7.82652
G1 X105.729 Y114.592 E7.84160
G1 X95.408 Y104.271 E8.27626
G1 X95.408 Y103.765 E8.29135
G1 X106.235 Y114.592 E8.74734
G1 X106.742 Y114.592 E8.76242
G1 X95.408 Y103.258 E9.23974
G1 X95.408 Y102.752 E9.25482
G1 X107.248 Y114.592 E9.75347
G1 X107.755 Y114.592 E9.76856
G1 X95.408 Y102.245 E10.28854
G1 X95.408 Y101.739 E10.30362
G1 X108.261 Y114.592 E10.84493
G1 X108.768 Y114.592 E10.86002
G1 X95.408 Y101.232 E11.42266
G1 X95.408 Y100.726 E11.43774
G1 X109.274 Y114.592 E12.02171
G1 X109.781 Y114.592 E12.03679
G1 X95.408 Y100.219 E12.64209
G1 X95.408 Y99.713 E12.65718
G1 X110.287 Y114.592 E13.28381
G1 X110.794 Y114.592 E13.29889
G1 X95.408 Y99.206 E13.94685
G1 X95.408 Y98.700 E13.96193
G1 X111.300 Y114.592 E14.63123
G1 X111.807 Y114.592 E14.64631
G1 X95.408 Y98.193 E15.33693
G1 X95.408 Y97.687 E15.35201
G1 X112.313 Y114.592 E16.06396
G1 X112.820 Y114.592 E16.07905
G1 X95.408 Y97.180 E16.81233
G1 X95.408 Y96.674 E16.82741
G1 X113.326 Y114.592 E17.58202
G1 X113.832 Y114.592 E17.59710
G1 X95.408 Y96.168 E18.37305
G1 X95.408 Y95.661 E18.38813
G1 X114.339 Y114.592 E19.18540
G1 X114.592 Y114.339 E19.19606
G1 X95.661 Y95.408 E19.99334
G1 X96.167 Y95.408 E20.00842
G1 X114.592 Y113.833 E20.78436
G1 X114.592 Y113.326 E20.79945
G1 X96.674 Y95.408 E21.55406
G1 X97.180 Y95.408 E21.56914
G1 X114.592 Y112.820 E22.30243
G1 X114.592 Y112.313 E22.31751
G1 X97.687 Y95.408 E23.02946
G1 X98.193 Y95.408 E23.04455
G1 X114.592 Y111.807 E23.73517
G1 X114.592 Y111.300 E23.75025
G1 X98.700 Y95.408 E24.41955
G1 X99.206 Y95.408 E24.43463
G1 X114.592 Y110.794 E25.08259
G1 X114.592 Y110.287 E25.09768
G1 X99.713 Y95.408 E25.72431
G1 X100.219 Y95.408 E25.73939
G1 X114.592 Y109.781 E26.34470
G1 X114.592 Y109.274 E26.35978
G1 X100.726 Y95.408 E26.94375
G1 X101.232 Y95.408 E26.95884
G1 X114.592 Y108.768 E27.52148
G1 X114.592 Y108.261 E27.53656
G1 X101.739 Y95.408 E28.07788
G1 X102.245 Y95.408 E28.09296
G1 X114.592 Y107.755 E28.61295
G1 X114.592 Y107.248 E28.62803
G1 X102.752 Y95.408 E29.12668
G1 X103.258 Y95.408 E29.14176
G1 X114.592 Y106.742 E29.61909
G1 X114.592 Y106.235 E29.63417
G1 X103.765 Y95.408 E30.09017
G1 X104.271 Y95.408 E30.10525
G1 X114.592 Y105.729 E30.53991
G1 X114.592 Y105.222 E30.55500
G1 X104.778 Y95.408 E30.96833
G1 X105.284 Y95.408 E30.98341
G1 X114.592 Y104.716 E31.37542
G1 X114.592 Y104.209 E31.39050
G1 X105.791 Y95.408 E31.76117
G1 X106.297 Y95.408 E31.77626
G1 X114.592 Y103.703 E32.12560
G1 X114.592 Y103.196 E32.14068
G1 X106.804 Y95.408 E32.46870
G1 X107.310 Y95.408 E32.48378
G1 X114.592 Y102.690 E32.79046
G1 X114.592 Y102.183 E32.80555
G1 X107.817 Y95.408 E33.09090
G1 X108.323 Y95.408 E33.10598
G1 X114.592 Y101.677 E33.37001
G1 X114.592 Y101.171 E33.38509
G1 X108.829 Y95.408 E33.62779
G1 X109.336 Y95.408 E33.64287
G1 X114.592 Y100.664 E33.86423
G1 X114.592 Y100.158 E33.87932
G1 X109.842 Y95.408 E34.07935
G1 X110.349 Y95.408 E34.09443
G1 X114.592 Y99.651 E34.27314
G1 X114.592 Y99.145 E34.28822
G1 X110.855 Y95.408 E34.44559
G1 X111.362 Y95.408 E34.46068
G1 X114.592 Y98.638 E34.59672
G1 X114.592 Y98.132 E34.61180
G1 X111.868 Y95.408 E34.72652
G1 X112.375 Y95.408 E34.74160
G1 X114.592 Y97.625 E34.83499
G1 X114.592 Y97.119 E34.85007
G1 X112.881 Y95.408 E34.92212
G1 X113.388 Y95.408 E34.93721
G1 X114.592 Y96.612 E34.98793
G1 X114.592 Y96.106 E35.00301
G1 X113.894 Y95.408 E35.03241
G1 X114.401 Y95.408 E35.04749
G1 X114.592 Y95.599 E35.05555
M104 S210 ; set temperature
M140 S50 ; wait for bed temperature to be reached
G1 Z0.400 F3600.000
G1 X114.800 Y95.599 F3600.000
G1 X114.800 Y114.800 E35.62565 F1800.000
G1 X95.200 Y114.800 E36.20760 F1800.000
G1 X95.200 Y95.200 E36.78955
G1 X114.800 Y95.200 E37.37150
G1 X114.800 Y95.539 E37.38157
G1 E36.38157 F1800.00000
G92 E0
G1 X114.170 Y114.477 F3600.000
G1 E1.00000 F1800.00000
G1 X114.477 Y114.170 E1.02319 F1200.000
G1 X114.477 Y113.261 E1.07184
G1 X113.261 Y114.477 E1.16382
G1 X112.351 Y114.477 E1.21247
G1 X114.477 Y112.351 E1.37326
G1 X114.477 Y111.441 E1.42191
G1 X111.441 Y114.477 E1.65149
G1 X110.532 Y114.477 E1.70014
G1 X114.477 Y110.532 E1.99852
G1 X114.477 Y109.622 E2.04717
G1 X109.622 Y114.477 E2.41436
G1 X108.713 Y114.477 E2.46300
G1 X114.477 Y108.713 E2.89899
G1 X114.477 Y107.803 E2.94763
G1 X107.803 Y114.477 E3.45242
G1 X106.893 Y114.477 E3.50106
G1 X114.477 Y106.893 E4.07465
G1 X114.477 Y105.984 E4.12329
G1 X105.984 Y114.477 E4.76567
G1 X105.074 Y114.477 E4.81432
G1 X114.477 Y105.074 E5.52550
G1 X114.477 Y104.164 E5.57415
G1 X104.164 Y114.477 E6.35413
G1 X103.255 Y114.477 E6.40278
G1 X114.477 Y103.255 E7.25155
G1 X114.477 Y102.345 E7.30020
G1 X102.345 Y114.477 E8.21778
G1 X101.436 Y114.477 E8.26643
G1 X114.477 Y101.436 E9.25280
G1 X114.477 Y100.526 E9.30145
G1 X100.526 Y114.477 E10.35663
G1 X99.616 Y114.477 E10.40528
G1 X114.477 Y99.616 E11.52925
G1 X114.477 Y98.707 E11.57790
G1 X98.707 Y114.477 E12.77067
G1 X97.797 Y114.477 E12.81932
G1 X114.477 Y97.797 E14.08089
G1 X114.477 Y96.888 E14.12954
G1 X96.888 Y114.477 E15.45991
G1 X95.978 Y114.477 E15.50856
G1 X114.477 Y95.978 E16.90773
G1 X114.022 Y95.523 E16.94213
G1 X95.523 Y114.022 E18.34130
G1 X95.523 Y113.112 E18.38995
G1 X113.112 Y95.523 E19.72032
G1 X112.203 Y95.523 E19.76897
G1 X95.523 Y112.203 E21.03054
G1 X95.523 Y111.293 E21.07918
G1 X111.293 Y95.523 E22.27195
G1 X110.384 Y95.523 E22.32060
G1 X95.523 Y110.384 E23.44457
G1 X95.523 Y109.474 E23.49322
G1 X109.474 Y95.523 E24.54839
G1 X108.564 Y95.523 E24.59704
G1 X95.523 Y108.564 E25.58342
G1 X95.523 Y107.655 E25.63206
G1 X107.655 Y95.523 E26.54964
G1 X106.745 Y95.523 E26.59829
G1 X95.523 Y106.745 E27.44706
G1 X95.523 Y105.835 E27.49571
G1 X105.835 Y95.523 E28.27568
G1 X104.926 Y95.523 E28.32433
G1 X95.523 Y104.926 E29.03551
G1 X95.523 Y104.016 E29.08416
G1 X104.016 Y95.523 E29.72654
G1 X103.107 Y95.523 E29.77518
G1 X95.523 Y103.107 E30.34876
G1 X95.523 Y102.197 E30.39741
G1 X102.197 Y95.523 E30.90219
G1 X101.287 Y95.523 E30.95084
G1 X95.523 Y101.287 E31.38682
G1 X95.523 Y100.378 E31.43547
G1 X100.378 Y95.523 E31.80265
G1 X99.468 Y95.523 E31.85129
G1 X95.523 Y99.468 E32.14968
G1 X95.523 Y98.559 E32.19832
G1 X98.559 Y95.523 E32.42791
G1 X97.649 Y95.523 E32.47656
G1 X95.523 Y97.649 E32.63734
G1 X95.523 Y96.739 E32.68599
G1 X96.739 Y95.523 E32.77797
G1 X95.830 Y95.523 E32.82662
G1 X95.523 Y95.830 E32.84980
G1 Z0.600 F3600.000
G1 X95.200 Y95.830 F3600.000
G1 X95.200 Y95.200 E32.86850 F1800.000
G1 X114.800 Y95.200 E33.45045
G1 X114.800 Y114.800 E34.03240
G1 X95.200 Y114.800 E34.61435 F1800.000
G1 X95.200 Y95.890 E35.17582
G1 E34.17582 F1800.00000
G92 E0
G1 X95.830 Y114.477 F3600.000
G1 E1.00000 F1800.00000
G1 X95.523 Y114.170 E1.02318 F1200.000
G1 X95.523 Y113.261 E1.07183
G1 X96.739 Y114.477 E1.16382
G1 X97.649 Y114.477 E1.21247
G1 X95.523 Y112.351 E1.37325
G1 X95.523 Y111.441 E1.42190
G1 X98.559 Y114.477 E1.65148
G1 X99.468 Y114.477 E1.70013
G1 X95.523 Y110.532 E1.99851
G1 X95.523 Y109.622 E2.04716
G1 X100.378 Y114.477 E2.41434
G1 X101.287 Y114.477 E2.46299
G1 X95.523 Y108.713 E2.89897
G1 X95.523 Y107.803 E2.94762
G1 X102.197 Y114.477 E3.45239
G1 X103.107 Y114.477 E3.50104
G1 X95.523 Y106.893 E4.07462
G1 X95.523 Y105.984 E4.12327
G1 X104.016 Y114.477 E4.76565
G1 X104.926 Y114.477 E4.81430
G1 X95.523 Y105.074 E5.52547
G1 X95.523 Y104.165 E5.57412
G1 X105.835 Y114.477 E6.35410
G1 X106.745 Y114.477 E6.40274
G1 X95.523 Y103.255 E7.25152
G1 X95.523 Y102.345 E7.30017
G1 X107.655 Y114.477 E8.21774
G1 X108.564 Y114.477 E8.26639
G1 X95.523 Y101.436 E9.25276
G1 X95.523 Y100.526 E9.30141
G1 X109.474 Y114.477 E10.35658
G1 X110.384 Y114.477 E10.40523
G1 X95.523 Y99.616 E11.52920
G1 X95.523 Y98.707 E11.57785
G1 X111.293 Y114.477 E12.77062
G1 X112.203 Y114.477 E12.81927
G1 X95.523 Y97.797 E14.08084
G1 X95.523 Y96.888 E14.12949
G1 X113.112 Y114.477 E15.45986
G1 X114.022 Y114.477 E15.50851
G1 X95.523 Y95.978 E16.90767
G1 X95.978 Y95.523 E16.94207
G1 X114.477 Y114.022 E18.34125
G1 X114.477 Y113.112 E18.38989
G1 X96.888 Y95.523 E19.72027
G1 X97.797 Y95.523 E19.76891
G1 X114.477 Y112.203 E21.03049
G1 X114.477 Y111.293 E21.07913
G1 X98.707 Y95.523 E22.27191
G1 X99.616 Y95.523 E22.32056
G1 X114.477 Y110.384 E23.44453
G1 X114.477 Y109.474 E23.49318
G1 X100.526 Y95.523 E24.54835
G1 X101.436 Y95.523 E24.59700
G1 X114.477 Y108.564 E25.58338
G1 X114.477 Y107.655 E25.63203
G1 X102.345 Y95.523 E26.54960
G1 X103.255 Y95.523 E26.59825
G1 X114.477 Y106.745 E27.44703
G1 X114.477 Y105.836 E27.49568
G1 X104.164 Y95.523 E28.27566
G1 X105.074 Y95.523 E28.32430
G1 X114.477 Y104.926 E29.03548
G1 X114.477 Y104.016 E29.08413
G1 X105.984 Y95.523 E29.72651
G1 X106.893 Y95.523 E29.77516
G1 X114.477 Y103.107 E30.34874
G1 X114.477 Y102.197 E30.39739
G1 X107.803 Y95.523 E30.90217
G1 X108.713 Y95.523 E30.95082
G1 X114.477 Y101.287 E31.38680
G1 X114.477 Y100.378 E31.43545
G1 X109.622 Y95.523 E31.80263
G1 X110.532 Y95.523 E31.85128
G1 X114.477 Y99.468 E32.14967
G1 X114.477 Y98.559 E32.19832
G1 X111.441 Y95.523 E32.42790
G1 X112.351 Y95.523 E32.47655
G1 X114.477 Y97.649 E32.63733
G1 X114.477 Y96.739 E32.68598
G1 X113.261 Y95.523 E32.77797
G1 X114.170 Y95.523 E32.82662
G1 X114.477 Y95.830 E32.84981
M106 S255
G1 Z0.6 F3600.000
G1 Z0.648 X114.800 Y114.800 E33.41306 F940.800
G1 Z0.698 X95.200 Y114.800 E33.99501 F940.800
G1 Z0.748 X95.200 Y95.200 E34.57696
G1 Z0.798 X114.800 Y95.200 E35.15891
G1 Z0.800 X114.800 Y95.830 E35.17760
G1 Z0.8 F3600.000
G1 Z0.848 X114.800 Y114.800 E35.74086 F940.800
G1 Z0.898 X95.200 Y114.800 E36.32281 F940.800
G1 Z0.948 X95.200 Y95.200 E36.90475
G1 Z0.998 X114.800 Y95.200 E37.48670
G1 Z1.000 X114.800 Y95.830 E37.50540
G1 Z1 F3600.000
G1 Z1.048 X114.800 Y114.800 E38.06865 F940.800
G1 Z1.098 X95.200 Y114.800 E38.65060 F940.800
G1 Z1.148 X95.200 Y95.200 E39.23255
G1 Z1.198 X114.800 Y95.200 E39.81450
G1 Z1.200 X114.800 Y95.830 E39.83320
G1 Z1.2 F3600.000
G1 Z1.248 X114.800 Y114.800 E40.39645 F940.800
G1 Z1.298 X95.200 Y114.800 E40.97840 F940.800
G1 Z1.348 X95.200 Y95.200 E41.56035
G1 Z1.398 X114.800 Y95.200 E42.14230
G1 Z1.400 X114.800 Y95.830 E42.16100
G1 Z1.4 F3600.000
G1 Z1.448 X114.800 Y114.800 E42.72425 F940.800
G1 Z1.498 X95.200 Y114.800 E43.30620 F940.800
G1 Z1.548 X95.200 Y95.200 E43.88815
G1 Z1.598 X114.800 Y95.200 E44.47010
G1 Z1.600 X114.800 Y95.830 E44.48879
G1 Z1.6 F3600.000
G1 Z1.648 X114.800 Y114.800 E45.05205 F940.800
G1 Z1.698 X95.200 Y114.800 E45.63399 F940.800
G1 Z1.748 X95.200 Y95.200 E46.21594
G1 Z1.798 X114.800 Y95.200 E46.79789
G1 Z1.800 X114.800 Y95.830 E46.81659
G1 Z1.8 F3600.000
G1 Z1.848 X114.800 Y114.800 E47.37984 F940.800
G1 Z1.898 X95.200 Y114.800 E47.96179 F940.800
G1 Z1.948 X95.200 Y95.200 E48.54374
G1 Z1.998 X114.800 Y95.200 E49.12569
G1 Z2.000 X114.800 Y95.830 E49.14439
G1 Z2 F3600.000
G1 Z2.048 X114.800 Y114.800 E49.70764 F940.800
G1 Z2.098 X95.200 Y114.800 E50.28959 F940.800
G1 Z2.148 X95.200 Y95.200 E50.87154
G1 Z2.198 X114.800 Y95.200 E51.45349
G1 Z2.200 X114.800 Y95.830 E51.47218
G1 Z2.2 F3600.000
G1 Z2.248 X114.800 Y114.800 E52.03544 F940.800
G1 Z2.298 X95.200 Y114.800 E52.61739 F940.800
G1 Z2.348 X95.200 Y95.200 E53.19934
G1 Z2.398 X114.800 Y95.200 E53.78129
G1 Z2.400 X114.800 Y95.830 E53.79998
G1 Z2.4 F3600.000
G1 Z2.448 X114.800 Y114.800 E54.36323 F940.800
G1 Z2.498 X95.200 Y114.800 E54.94518 F940.800
G1 Z2.548 X95.200 Y95.200 E55.52713
G1 Z2.598 X114.800 Y95.200 E56.10908
G1 Z2.600 X114.800 Y95.830 E56.12778
G1 Z2.6 F3600.000
G1 Z2.648 X114.800 Y114.800 E56.69103 F940.800
G1 Z2.698 X95.200 Y114.800 E57.27298 F940.800
G1 Z2.748 X95.200 Y95.200 E57.85493
G1 Z2.798 X114.800 Y95.200 E58.43688
G1 Z2.800 X114.800 Y95.830 E58.45558
G1 Z2.8 F3600.000
G1 Z2.848 X114.800 Y114.800 E59.01883 F940.800
G1 Z2.898 X95.200 Y114.800 E59.60078 F940.800
G1 Z2.948 X95.200 Y95.200 E60.18273
G1 Z2.998 X114.800 Y95.200 E60.76468
G1 Z3.000 X114.800 Y95.830 E60.78337
G1 Z3 F3600.000
G1 Z3.048 X114.800 Y114.800 E61.34663 F940.800
G1 Z3.098 X95.200 Y114.800 E61.92858 F940.800
G1 Z3.148 X95.200 Y95.200 E62.51053
G1 Z3.198 X114.800 Y95.200 E63.09247
G1 Z3.200 X114.800 Y95.830 E63.11117
G1 Z3.2 F3600.000
G1 Z3.248 X114.800 Y114.800 E63.67442 F940.800
G1 Z3.298 X95.200 Y114.800 E64.25637 F940.800
G1 Z3.348 X95.200 Y95.200 E64.83832
G1 Z3.398 X114.800 Y95.200 E65.42027
G1 Z3.400 X114.800 Y95.830 E65.43897
G1 Z3.4 F3600.000
G1 Z3.448 X114.800 Y114.800 E66.00222 F940.800
G1 Z3.498 X95.200 Y114.800 E66.58417 F940.800
G1 Z3.548 X95.200 Y95.200 E67.16612
G1 Z3.598 X114.800 Y95.200 E67.74807
G1 Z3.600 X114.800 Y95.830 E67.76677
G1 Z3.6 F3600.000
G1 Z3.648 X114.800 Y114.800 E68.33002 F940.800
G1 Z3.698 X95.200 Y114.800 E68.91197 F940.800
G1 Z3.748 X95.200 Y95.200 E69.49392
G1 Z3.798 X114.800 Y95.200 E70.07587
G1 Z3.800 X114.800 Y95.830 E70.09456
G1 Z3.8 F3600.000
G1 Z3.848 X114.800 Y114.800 E70.65782 F940.800
G1 Z3.898 X95.200 Y114.800 E71.23977 F940.800
G1 Z3.948 X95.200 Y95.200 E71.82171
G1 Z3.998 X114.800 Y95.200 E72.40366
G1 Z4.000 X114.800 Y95.830 E72.42236
G1 Z4 F3600.000
G1 Z4.048 X114.800 Y114.800 E72.98561 F940.800
G1 Z4.098 X95.200 Y114.800 E73.56756 F940.800
G1 Z4.148 X95.200 Y95.200 E74.14951
G1 Z4.198 X114.800 Y95.200 E74.73146
G1 Z4.200 X114.800 Y95.830 E74.75016
G1 Z4.2 F3600.000
G1 Z4.248 X114.800 Y114.800 E75.31341 F940.800
G1 Z4.298 X95.200 Y114.800 E75.89536 F940.800
G1 Z4.348 X95.200 Y95.200 E76.47731
G1 Z4.398 X114.800 Y95.200 E77.05926
G1 Z4.400 X114.800 Y95.830 E77.07796
G1 Z4.4 F3600.000
G1 Z4.448 X114.800 Y114.800 E77.64121 F940.800
G1 Z4.498 X95.200 Y114.800 E78.22316 F940.800
G1 Z4.548 X95.200 Y95.200 E78.80511
G1 Z4.598 X114.800 Y95.200 E79.38706
G1 Z4.600 X114.800 Y95.830 E79.40575
G1 Z4.6 F3600.000
G1 Z4.648 X114.800 Y114.800 E79.96901 F940.800
G1 Z4.698 X95.200 Y114.800 E80.55095 F940.800
G1 Z4.748 X95.200 Y95.200 E81.13290
G1 Z4.798 X114.800 Y95.200 E81.71485
G1 Z4.800 X114.800 Y95.830 E81.73355
G1 Z4.8 F3600.000
G1 Z4.848 X114.800 Y114.800 E82.29680 F940.800
G1 Z4.898 X95.200 Y114.800 E82.87875 F940.800
G1 Z4.948 X95.200 Y95.200 E83.46070
G1 Z4.998 X114.800 Y95.200 E84.04265
G1 Z5.000 X114.800 Y95.830 E84.06135
G1 Z5 F3600.000
