; generated by Slic3r 1.2.9 on 2018-11-03 at 22:35:45

; external perimeters extrusion width = 0.40mm
; perimeters extrusion width = 0.67mm
; infill extrusion width = 0.67mm
; solid infill extrusion width = 0.67mm
; top infill extrusion width = 0.67mm

M107
M140 S60;
M190 S60;
M104 S215;
M109 S215;
G21; set mm units
G92 E0;
G90;
G28 ; home all
G29; Bed Level calibration
G1 X0 Y0 F3000; 
G1 Z0.4 F120;
G1 E5 F1200 ; Prime extruder 3mm
G1 X0 Y0 E4.0 F1000.0 ; prime
G1 X100.0 E8.5 F1000.0 ; prime
G92 E0
G21 ; set units to millimeters
G90 ; use absolute coordinates
M82 ; use absolute distances for extrusion
G92 E0
G1 E-1.60000 F600.00000
G92 E0
G1 Z0.200 F3600.000
G1 X95.200 Y95.200 F3600.000
G1 E1.60000 F600.00000
G1 X114.800 Y95.200 E2.18195 F1800.000
G1 X114.800 Y114.800 E2.76390
G1 X95.200 Y114.800 E3.34585
G1 X95.200 Y95.260 E3.92602
G1 X95.599 Y114.592 F3600.000
G1 X95.408 Y114.401 E3.93408 F1800.000
G1 X95.408 Y113.894 E3.94916
G1 X96.106 Y114.592 E3.97855
G1 X96.612 Y114.592 E3.99363
G1 X95.408 Y113.388 E4.04436
G1 X95.408 Y112.881 E4.05944
G1 X97.119 Y114.592 E4.13149
G1 X97.625 Y114.592 E4.14657
G1 X95.408 Y112.375 E4.23996
G1 X95.408 Y111.868 E4.25504
G1 X98.132 Y114.592 E4.36975
G1 X98.638 Y114.592 E4.38483
G1 X95.408 Y111.362 E4.52087
G1 X95.408 Y110.855 E4.53596
G1 X99.145 Y114.592 E4.69333
G1 X99.651 Y114.592 E4.70841
G1 X95.408 Y110.349 E4.88711
G1 X95.408 Y109.842 E4.90220
G1 X100.158 Y114.592 E5.10223
G1 X100.664 Y114.592 E5.11731
G1 X95.408 Y109.336 E5.33867
G1 X95.408 Y108.830 E5.35375
G1 X101.170 Y114.592 E5.59645
G1 X101.677 Y114.592 E5.61153
G1 X95.408 Y108.323 E5.87555
G1 X95.408 Y107.817 E5.89063
G1 X102.183 Y114.592 E6.17598
G1 X102.690 Y114.592 E6.19107
G1 X95.408 Y107.310 E6.49775
G1 X95.408 Y106.804 E6.51283
G1 X103.196 Y114.592 E6.84084
G1 X103.703 Y114.592 E6.85592
G1 X95.408 Y106.297 E7.20527
G1 X95.408 Y105.791 E7.22035
G1 X104.209 Y114.592 E7.59102
G1 X104.716 Y114.592 E7.60610
G1 X95.408 Y105.284 E7.99810
G1 X95.408 Y104.778 E8.01319
G1 X105.222 Y114.592 E8.42652
G1 X105.729 Y114.592 E8.44160
G1 X95.408 Y104.271 E8.87626
G1 X95.408 Y103.765 E8.89135
G1 X106.235 Y114.592 E9.34734
G1 X106.742 Y114.592 E9.36242
G1 X95.408 Y103.258 E9.83974
G1 X95.408 Y102.752 E9.85482
G1 X107.248 Y114.592 E10.35347
G1 X107.755 Y114.592 E10.36856
G1 X95.408 Y102.245 E10.88854
G1 X95.408 Y101.739 E10.90362
G1 X108.261 Y114.592 E11.44493
G1 X108.768 Y114.592 E11.46002
G1 X95.408 Y101.232 E12.02266
G1 X95.408 Y100.726 E12.03774
G1 X109.274 Y114.592 E12.62171
G1 X109.781 Y114.592 E12.63679
G1 X95.408 Y100.219 E13.24209
G1 X95.408 Y99.713 E13.25718
G1 X110.287 Y114.592 E13.88381
G1 X110.794 Y114.592 E13.89889
G1 X95.408 Y99.206 E14.54685
G1 X95.408 Y98.700 E14.56193
G1 X111.300 Y114.592 E15.23123
G1 X111.807 Y114.592 E15.24631
G1 X95.408 Y98.193 E15.93693
G1 X95.408 Y97.687 E15.95201
G1 X112.313 Y114.592 E16.66396
G1 X112.820 Y114.592 E16.67905
G1 X95.408 Y97.180 E17.41233
G1 X95.408 Y96.674 E17.42741
G1 X113.326 Y114.592 E18.18202
G1 X113.832 Y114.592 E18.19710
G1 X95.408 Y96.168 E18.97305
G1 X95.408 Y95.661 E18.98813
G1 X114.339 Y114.592 E19.78540
G1 X114.592 Y114.339 E19.79606
G1 X95.661 Y95.408 E20.59334
G1 X96.167 Y95.408 E20.60842
G1 X114.592 Y113.833 E21.38436
G1 X114.592 Y113.326 E21.39945
G1 X96.674 Y95.408 E22.15406
G1 X97.180 Y95.408 E22.16914
G1 X114.592 Y112.820 E22.90243
G1 X114.592 Y112.313 E22.91751
G1 X97.687 Y95.408 E23.62946
G1 X98.193 Y95.408 E23.64455
G1 X114.592 Y111.807 E24.33517
G1 X114.592 Y111.300 E24.35025
G1 X98.700 Y95.408 E25.01955
G1 X99.206 Y95.408 E25.03463
G1 X114.592 Y110.794 E25.68259
G1 X114.592 Y110.287 E25.69768
G1 X99.713 Y95.408 E26.32431
G1 X100.219 Y95.408 E26.33939
G1 X114.592 Y109.781 E26.94470
G1 X114.592 Y109.274 E26.95978
G1 X100.726 Y95.408 E27.54375
G1 X101.232 Y95.408 E27.55884
G1 X114.592 Y108.768 E28.12148
G1 X114.592 Y108.261 E28.13656
G1 X101.739 Y95.408 E28.67788
G1 X102.245 Y95.408 E28.69296
G1 X114.592 Y107.755 E29.21295
G1 X114.592 Y107.248 E29.22803
G1 X102.752 Y95.408 E29.72668
G1 X103.258 Y95.408 E29.74176
G1 X114.592 Y106.742 E30.21909
G1 X114.592 Y106.235 E30.23417
G1 X103.765 Y95.408 E30.69017
G1 X104.271 Y95.408 E30.70525
G1 X114.592 Y105.729 E31.13991
G1 X114.592 Y105.222 E31.15500
G1 X104.778 Y95.408 E31.56833
G1 X105.284 Y95.408 E31.58341
G1 X114.592 Y104.716 E31.97542
G1 X114.592 Y104.209 E31.99050
G1 X105.791 Y95.408 E32.36117
G1 X106.297 Y95.408 E32.37626
G1 X114.592 Y103.703 E32.72560
G1 X114.592 Y103.196 E32.74068
G1 X106.804 Y95.408 E33.06870
G1 X107.310 Y95.408 E33.08378
G1 X114.592 Y102.690 E33.39046
G1 X114.592 Y102.183 E33.40555
G1 X107.817 Y95.408 E33.69090
G1 X108.323 Y95.408 E33.70598
G1 X114.592 Y101.677 E33.97001
G1 X114.592 Y101.171 E33.98509
G1 X108.829 Y95.408 E34.22779
G1 X109.336 Y95.408 E34.24287
G1 X114.592 Y100.664 E34.46423
G1 X114.592 Y100.158 E34.47932
G1 X109.842 Y95.408 E34.67935
G1 X110.349 Y95.408 E34.69443
G1 X114.592 Y99.651 E34.87314
G1 X114.592 Y99.145 E34.88822
G1 X110.855 Y95.408 E35.04559
G1 X111.362 Y95.408 E35.06068
G1 X114.592 Y98.638 E35.19672
G1 X114.592 Y98.132 E35.21180
G1 X111.868 Y95.408 E35.32652
G1 X112.375 Y95.408 E35.34160
G1 X114.592 Y97.625 E35.43499
G1 X114.592 Y97.119 E35.45007
G1 X112.881 Y95.408 E35.52212
G1 X113.388 Y95.408 E35.53721
G1 X114.592 Y96.612 E35.58793
G1 X114.592 Y96.106 E35.60301
G1 X113.894 Y95.408 E35.63241
G1 X114.401 Y95.408 E35.64749
G1 X114.592 Y95.599 E35.65555
M104 S210 ; set temperature
M140 S50 ; wait for bed temperature to be reached
G1 F2880
G1 X114.401 Y95.408 E35.60196
G1 F2880
G1 X113.894 Y95.408 E35.50171
G1 F2880
G1 X114.592 Y96.106 E35.30635
G1 F2880
G1 X114.592 Y96.612 E35.20611
G1 F2880
G1 X113.388 Y95.408 E34.86899
G1 F2880
G1 X112.881 Y95.408 E34.76875
G1 F2880
G1 X114.592 Y97.119 E34.28986
G1 F2880
G1 X114.592 Y97.625 E34.18962
G1 F2880
G1 X114.399 Y97.432 E34.13555
G1 E34.05555 F600.00000
G92 E0
G1 Z0.400 F3600.000
G1 X95.200 Y95.200 F3600.000
G1 E1.60000 F600.00000
G1 X114.800 Y95.200 E2.18195 F1800.000
G1 X114.800 Y114.800 E2.76390
G1 X95.200 Y114.800 E3.34585
G1 X95.200 Y95.260 E3.92602
G1 X95.523 Y95.830 F3600.000
G1 X95.830 Y95.523 E3.94920 F1200.000
G1 X96.739 Y95.523 E3.99785
G1 X95.523 Y96.739 E4.08983
G1 X95.523 Y97.649 E4.13848
G1 X97.649 Y95.523 E4.29927
G1 X98.559 Y95.523 E4.34791
G1 X95.523 Y98.559 E4.57750
G1 X95.523 Y99.468 E4.62614
G1 X99.468 Y95.523 E4.92453
G1 X100.378 Y95.523 E4.97317
G1 X95.523 Y100.378 E5.34035
G1 X95.523 Y101.287 E5.38900
G1 X101.287 Y95.523 E5.82498
G1 X102.197 Y95.523 E5.87363
G1 X95.523 Y102.197 E6.37841
G1 X95.523 Y103.107 E6.42706
G1 X103.107 Y95.523 E7.00064
G1 X104.016 Y95.523 E7.04929
G1 X95.523 Y104.016 E7.69166
G1 X95.523 Y104.926 E7.74031
G1 X104.926 Y95.523 E8.45149
G1 X105.835 Y95.523 E8.50014
G1 X95.523 Y105.835 E9.28011
G1 X95.523 Y106.745 E9.32876
G1 X106.745 Y95.523 E10.17753
G1 X107.655 Y95.523 E10.22618
G1 X95.523 Y107.655 E11.14376
G1 X95.523 Y108.564 E11.19241
G1 X108.564 Y95.523 E12.17878
G1 X109.474 Y95.523 E12.22743
G1 X95.523 Y109.474 E13.28260
G1 X95.523 Y110.384 E13.33125
G1 X110.384 Y95.523 E14.45522
G1 X111.293 Y95.523 E14.50387
G1 X95.523 Y111.293 E15.69664
G1 X95.523 Y112.203 E15.74529
G1 X112.203 Y95.523 E17.00686
G1 X113.112 Y95.523 E17.05550
G1 X95.523 Y113.112 E18.38587
G1 X95.523 Y114.022 E18.43452
G1 X114.022 Y95.523 E19.83369
G1 X114.477 Y95.978 E19.86809
G1 X95.978 Y114.477 E21.26726
G1 X96.888 Y114.477 E21.31591
G1 X114.477 Y96.888 E22.64628
G1 X114.477 Y97.797 E22.69493
G1 X97.797 Y114.477 E23.95650
G1 X98.707 Y114.477 E24.00515
G1 X114.477 Y98.707 E25.19792
G1 X114.477 Y99.616 E25.24657
G1 X99.616 Y114.477 E26.37054
G1 X100.526 Y114.477 E26.41919
G1 X114.477 Y100.526 E27.47437
G1 X114.477 Y101.436 E27.52302
G1 X101.436 Y114.477 E28.50939
G1 X102.345 Y114.477 E28.55804
G1 X114.477 Y102.345 E29.47562
G1 X114.477 Y103.255 E29.52427
G1 X103.255 Y114.477 E30.37304
G1 X104.164 Y114.477 E30.42169
G1 X114.477 Y104.164 E31.20167
G1 X114.477 Y105.074 E31.25032
G1 X105.074 Y114.477 E31.96150
G1 X105.984 Y114.477 E32.01015
G1 X114.477 Y105.984 E32.65253
G1 X114.477 Y106.893 E32.70117
G1 X106.893 Y114.477 E33.27476
G1 X107.803 Y114.477 E33.32340
G1 X114.477 Y107.803 E33.82819
G1 X114.477 Y108.713 E33.87683
G1 X108.713 Y114.477 E34.31282
G1 X109.622 Y114.477 E34.36147
G1 X114.477 Y109.622 E34.72865
G1 X114.477 Y110.532 E34.77730
G1 X110.532 Y114.477 E35.07568
G1 X111.441 Y114.477 E35.12433
G1 X114.477 Y111.441 E35.35391
G1 X114.477 Y112.351 E35.40256
G1 X112.351 Y114.477 E35.56335
G1 X113.261 Y114.477 E35.61200
G1 X114.477 Y113.261 E35.70398
G1 X114.477 Y114.170 E35.75263
G1 X114.170 Y114.477 E35.77582
G1 F2880
G1 X114.477 Y114.170 E35.69001
G1 F2880
G1 X114.477 Y113.261 E35.50998
G1 F2880
G1 X113.261 Y114.477 E35.16957
G1 F2880
G1 X112.351 Y114.477 E34.98955
G1 F2880
G1 X114.477 Y112.351 E34.39454
G1 F2880
G1 X114.477 Y111.650 E34.25582
G1 E34.17582 F600.00000
G92 E0
G1 Z0.600 F3600.000
G1 X95.200 Y95.200 F3600.000
G1 E1.60000 F600.00000
G1 X114.800 Y95.200 E2.18195 F1800.000
G1 X114.800 Y114.800 E2.76390
G1 X95.200 Y114.800 E3.34585
G1 X95.200 Y95.260 E3.92602
G1 F2880
G1 X102.880 Y95.236 E2.40602
G1 E2.32602 F600.00000
G92 E0
G1 X95.830 Y114.477 F3600.000
G1 E1.60000 F600.00000
G1 X95.523 Y114.170 E1.62318 F1200.000
G1 X95.523 Y113.261 E1.67183
G1 X96.739 Y114.477 E1.76382
G1 X97.649 Y114.477 E1.81247
G1 X95.523 Y112.351 E1.97325
G1 X95.523 Y111.441 E2.02190
G1 X98.559 Y114.477 E2.25148
G1 X99.468 Y114.477 E2.30013
G1 X95.523 Y110.532 E2.59851
G1 X95.523 Y109.622 E2.64716
G1 X100.378 Y114.477 E3.01434
G1 X101.287 Y114.477 E3.06299
G1 X95.523 Y108.713 E3.49897
G1 X95.523 Y107.803 E3.54762
G1 X102.197 Y114.477 E4.05239
G1 X103.107 Y114.477 E4.10104
G1 X95.523 Y106.893 E4.67462
G1 X95.523 Y105.984 E4.72327
G1 X104.016 Y114.477 E5.36565
G1 X104.926 Y114.477 E5.41430
G1 X95.523 Y105.074 E6.12547
G1 X95.523 Y104.165 E6.17412
G1 X105.835 Y114.477 E6.95410
G1 X106.745 Y114.477 E7.00274
G1 X95.523 Y103.255 E7.85152
G1 X95.523 Y102.345 E7.90017
G1 X107.655 Y114.477 E8.81774
G1 X108.564 Y114.477 E8.86639
G1 X95.523 Y101.436 E9.85276
G1 X95.523 Y100.526 E9.90141
G1 X109.474 Y114.477 E10.95658
G1 X110.384 Y114.477 E11.00523
G1 X95.523 Y99.616 E12.12920
G1 X95.523 Y98.707 E12.17785
G1 X111.293 Y114.477 E13.37062
G1 X112.203 Y114.477 E13.41927
G1 X95.523 Y97.797 E14.68084
G1 X95.523 Y96.888 E14.72949
G1 X113.112 Y114.477 E16.05986
G1 X114.022 Y114.477 E16.10851
G1 X95.523 Y95.978 E17.50767
G1 X95.978 Y95.523 E17.54207
G1 X114.477 Y114.022 E18.94125
G1 X114.477 Y113.112 E18.98989
G1 X96.888 Y95.523 E20.32027
G1 X97.797 Y95.523 E20.36891
G1 X114.477 Y112.203 E21.63049
G1 X114.477 Y111.293 E21.67913
G1 X98.707 Y95.523 E22.87191
G1 X99.616 Y95.523 E22.92056
G1 X114.477 Y110.384 E24.04453
G1 X114.477 Y109.474 E24.09318
G1 X100.526 Y95.523 E25.14835
G1 X101.436 Y95.523 E25.19700
G1 X114.477 Y108.564 E26.18338
G1 X114.477 Y107.655 E26.23203
G1 X102.345 Y95.523 E27.14960
G1 X103.255 Y95.523 E27.19825
G1 X114.477 Y106.745 E28.04703
G1 X114.477 Y105.836 E28.09568
G1 X104.164 Y95.523 E28.87566
G1 X105.074 Y95.523 E28.92430
G1 X114.477 Y104.926 E29.63548
G1 X114.477 Y104.016 E29.68413
G1 X105.984 Y95.523 E30.32651
G1 X106.893 Y95.523 E30.37516
G1 X114.477 Y103.107 E30.94874
G1 X114.477 Y102.197 E30.99739
G1 X107.803 Y95.523 E31.50217
G1 X108.713 Y95.523 E31.55082
G1 X114.477 Y101.287 E31.98680
G1 X114.477 Y100.378 E32.03545
G1 X109.622 Y95.523 E32.40263
G1 X110.532 Y95.523 E32.45128
G1 X114.477 Y99.468 E32.74967
G1 X114.477 Y98.559 E32.79832
G1 X111.441 Y95.523 E33.02790
G1 X112.351 Y95.523 E33.07655
G1 X114.477 Y97.649 E33.23733
G1 X114.477 Y96.739 E33.28598
G1 X113.261 Y95.523 E33.37797
G1 X114.170 Y95.523 E33.42662
G1 X114.477 Y95.830 E33.44981
M106 S255
G1 F2880
G1 X114.170 Y95.523 E33.36400
G1 F2880
G1 X113.261 Y95.523 E33.18397
G1 F2880
G1 X114.477 Y96.739 E32.84356
G1 F2880
G1 X114.477 Y97.649 E32.66353
G1 F2880
G1 X112.351 Y95.523 E32.06852
G1 F2880
G1 X111.650 Y95.523 E31.92981
G1 E31.84981 F600.00000
G92 E0
G1 Z0.800 F3600.000
G1 X95.200 Y95.200 F3600.000
G1 E1.60000 F600.00000
G1 X114.800 Y95.200 E2.18195 F600.000
G1 X114.800 Y114.800 E2.76390
G1 X95.200 Y114.800 E3.34585
G1 X95.200 Y95.260 E3.92602
G1 F2880
G1 X102.880 Y95.236 E2.40602
G1 E2.32602 F600.00000
G92 E0
G1 Z1.000 F3600.000
G1 X95.200 Y95.200 F3600.000
G1 E1.60000 F600.00000
G1 X114.800 Y95.200 E2.18195 F600.000
G1 X114.800 Y114.800 E2.76390
G1 X95.200 Y114.800 E3.34585
G1 X95.200 Y95.260 E3.92602
G1 F2880
G1 X102.880 Y95.236 E2.40602
G1 E2.32602 F600.00000
G92 E0
G1 Z1.200 F3600.000
G1 X95.200 Y95.200 F3600.000
G1 E1.60000 F600.00000
G1 X114.800 Y95.200 E2.18195 F600.000
G1 X114.800 Y114.800 E2.76390
G1 X95.200 Y114.800 E3.34585
G1 X95.200 Y95.260 E3.92602
G1 F2880
G1 X102.880 Y95.236 E2.40602
G1 E2.32602 F600.00000
G92 E0
G1 Z1.400 F3600.000
G1 X95.200 Y95.200 F3600.000
G1 E1.60000 F600.00000
G1 X114.800 Y95.200 E2.18195 F600.000
G1 X114.800 Y114.800 E2.76390
G1 X95.200 Y114.800 E3.34585
G1 X95.200 Y95.260 E3.92602
G1 F2880
G1 X102.880 Y95.236 E2.40602
G1 E2.32602 F600.00000
G92 E0
G1 Z1.600 F3600.000
G1 X95.200 Y95.200 F3600.000
G1 E1.60000 F600.00000
G1 X114.800 Y95.200 E2.18195 F600.000
G1 X114.800 Y114.800 E2.76390
G1 X95.200 Y114.800 E3.34585
G1 X95.200 Y95.260 E3.92602
G1 F2880
G1 X102.880 Y95.236 E2.40602
G1 E2.32602 F600.00000
G92 E0
G1 Z1.800 F3600.000
G1 X95.200 Y95.200 F3600.000
G1 E1.60000 F600.00000
G1 X114.800 Y95.200 E2.18195 F600.000
G1 X114.800 Y114.800 E2.76390
G1 X95.200 Y114.800 E3.34585
G1 X95.200 Y95.260 E3.92602
G1 F2880
G1 X102.880 Y95.236 E2.40602
G1 E2.32602 F600.00000
G92 E0
G1 Z2.000 F3600.000
G1 X95.200 Y95.200 F3600.000
G1 E1.60000 F600.00000
G1 X114.800 Y95.200 E2.18195 F600.000
G1 X114.800 Y114.800 E2.76390
G1 X95.200 Y114.800 E3.34585
G1 X95.200 Y95.260 E3.92602
G1 F2880
G1 X102.880 Y95.236 E2.40602
G1 E2.32602 F600.00000
G92 E0
G1 Z2.200 F3600.000
G1 X95.200 Y95.200 F3600.000
G1 E1.60000 F600.00000
G1 X114.800 Y95.200 E2.18195 F600.000
G1 X114.800 Y114.800 E2.76390
G1 X95.200 Y114.800 E3.34585
G1 X95.200 Y95.260 E3.92602
G1 F2880
G1 X102.880 Y95.236 E2.40602
G1 E2.32602 F600.00000
G92 E0
G1 Z2.400 F3600.000
G1 X95.200 Y95.200 F3600.000
G1 E1.60000 F600.00000
G1 X114.800 Y95.200 E2.18195 F600.000
G1 X114.800 Y114.800 E2.76390
G1 X95.200 Y114.800 E3.34585
G1 X95.200 Y95.260 E3.92602
G1 F2880
G1 X102.880 Y95.236 E2.40602
G1 E2.32602 F600.00000
G92 E0
G1 Z2.600 F3600.000
G1 X95.200 Y95.200 F3600.000
G1 E1.60000 F600.00000
G1 X114.800 Y95.200 E2.18195 F600.000
G1 X114.800 Y114.800 E2.76390
G1 X95.200 Y114.800 E3.34585
G1 X95.200 Y95.260 E3.92602
G1 F2880
G1 X102.880 Y95.236 E2.40602
G1 E2.32602 F600.00000
G92 E0
G1 Z2.800 F3600.000
G1 X95.200 Y95.200 F3600.000
G1 E1.60000 F600.00000
G1 X114.800 Y95.200 E2.18195 F600.000
G1 X114.800 Y114.800 E2.76390
G1 X95.200 Y114.800 E3.34585
G1 X95.200 Y95.260 E3.92602
G1 F2880
G1 X102.880 Y95.236 E2.40602
G1 E2.32602 F600.00000
G92 E0
G1 Z3.000 F3600.000
G1 X95.200 Y95.200 F3600.000
G1 E1.60000 F600.00000
G1 X114.800 Y95.200 E2.18195 F600.000
G1 X114.800 Y114.800 E2.76390
G1 X95.200 Y114.800 E3.34585
G1 X95.200 Y95.260 E3.92602
G1 F2880
G1 X102.880 Y95.236 E2.40602
G1 E2.32602 F600.00000
G92 E0
G1 Z3.200 F3600.000
G1 X95.200 Y95.200 F3600.000
G1 E1.60000 F600.00000
G1 X114.800 Y95.200 E2.18195 F600.000
G1 X114.800 Y114.800 E2.76390
G1 X95.200 Y114.800 E3.34585
G1 X95.200 Y95.260 E3.92602
G1 F2880
G1 X102.880 Y95.236 E2.40602
G1 E2.32602 F600.00000
G92 E0
G1 Z3.400 F3600.000
G1 X95.200 Y95.200 F3600.000
G1 E1.60000 F600.00000
G1 X114.800 Y95.200 E2.18195 F600.000
G1 X114.800 Y114.800 E2.76390
G1 X95.200 Y114.800 E3.34585
G1 X95.200 Y95.260 E3.92602
G1 F2880
G1 X102.880 Y95.236 E2.40602
G1 E2.32602 F600.00000
G92 E0
G1 Z3.600 F3600.000
G1 X95.200 Y95.200 F3600.000
G1 E1.60000 F600.00000
G1 X114.800 Y95.200 E2.18195 F600.000
G1 X114.800 Y114.800 E2.76390
G1 X95.200 Y114.800 E3.34585
G1 X95.200 Y95.260 E3.92602
G1 F2880
G1 X102.880 Y95.236 E2.40602
G1 E2.32602 F600.00000
G92 E0
G1 Z3.800 F3600.000
G1 X95.200 Y95.200 F3600.000
G1 E1.60000 F600.00000
