; generated by Slic3r Prusa Edition 1.39.1-prusa3d-win64 on 2018-07-02 at 03:25:50

; 

; external perimeters extrusion width = 0.45mm
; perimeters extrusion width = 0.45mm
; infill extrusion width = 0.45mm
; solid infill extrusion width = 0.45mm
; top infill extrusion width = 0.40mm
; first layer extrusion width = 0.42mm

M107
M115 U3.1.0 ; tell printer latest fw version
M201 X9000 Y9000 Z500 E10000 ; sets maximum accelerations, mm/sec^2
M203 X500 Y500 Z12 E120 ; sets maximum feedrates, mm/sec
M204 S1500 T1500 ; sets acceleration (S) and retract acceleration (T)
M205 X10 Y10 Z0.2 E2.5 ; sets the jerk limits, mm/sec
M205 S0 T0 ; sets the minimum extruding and travel feed rate, mm/sec
M83  ; extruder relative mode
M104 S215 ; set extruder temp
M140 S60 ; set bed temp
M190 S60 ; wait for bed temp
M109 S215 ; wait for extruder temp
G28 W ; home all without mesh bed level
G80 ; mesh bed leveling
G1 Y-3.0 F1000.0 ; go outside print area
G92 E0.0
G1 X60.0 E9.0  F1000.0 ; intro line
G1 X100.0 E12.5  F1000.0 ; intro line
G92 E0.0
M900 K30; Filament gcode
G21 ; set units to millimeters
G90 ; use absolute coordinates
M83 ; use relative distances for extrusion
;BEFORE_LAYER_CHANGE
;0.2


G1 E-0.80000 F2100.00000
G1 Z0.600 F7200.000
;AFTER_LAYER_CHANGE
;0.2
G1 X102.253 Y91.848 F7200.000
G1 Z0.200 F7200.000
G1 E0.80000 F2100.00000
M204 S1000
G1 F1800
G1 X102.998 Y91.744 E0.02358
G1 X147.000 Y91.744 E1.37967
G1 X147.909 Y91.900 E0.02892
G1 X148.716 Y92.347 E0.02892
G1 X151.253 Y94.861 E0.11200
G1 X151.708 Y95.505 E0.02473
G1 X154.219 Y101.631 E0.20757
G1 X154.297 Y102.260 E0.01988
G1 X154.254 Y105.966 E0.11621
G1 X154.098 Y106.505 E0.01758
G1 X151.779 Y112.104 E0.19001
G1 X151.218 Y112.935 E0.03145
G1 X148.899 Y115.253 E0.10279
G1 X148.387 Y115.639 E0.02014
G1 X142.216 Y118.202 E0.20949
G1 X141.471 Y118.306 E0.02358
G1 X108.524 Y118.306 E1.03306
G1 X107.846 Y118.219 E0.02141
G1 X101.890 Y115.781 E0.20180
G1 X101.059 Y115.212 E0.03157
G1 X98.756 Y112.908 E0.10215
G1 X98.369 Y112.395 E0.02014
G1 X95.806 Y106.225 E0.20949
G1 X95.702 Y105.496 E0.02307
G1 X95.703 Y102.234 E0.10228
G1 X95.772 Y101.670 E0.01784
G1 X98.233 Y95.630 E0.20447
G1 X98.717 Y94.894 E0.02765
G1 X101.118 Y92.491 E0.10652
G1 X101.645 Y92.102 E0.02052
G1 X102.197 Y91.872 E0.01877
G1 X102.341 Y92.220 F7200.000
G1 F1800
G1 X103.000 Y92.121 E0.02089
G1 X147.000 Y92.121 E1.37959
G1 X147.795 Y92.259 E0.02532
G1 X148.498 Y92.656 E0.02532
G1 X150.977 Y95.119 E0.10956
G1 X151.382 Y95.697 E0.02213
G1 X153.852 Y101.717 E0.20404
G1 X153.920 Y102.268 E0.01740
G1 X153.879 Y105.920 E0.11450
G1 X151.435 Y111.949 E0.20399
G1 X150.946 Y112.674 E0.02743
G1 X148.641 Y114.978 E0.10216
G1 X148.196 Y115.314 E0.01752
G1 X142.101 Y117.843 E0.20690
G1 X141.468 Y117.929 E0.02001
G1 X108.528 Y117.929 E1.03282
G1 X107.944 Y117.855 E0.01846
G1 X102.049 Y115.439 E0.19975
G1 X101.326 Y114.946 E0.02743
G1 X99.031 Y112.650 E0.10180
G1 X98.694 Y112.204 E0.01752
G1 X96.164 Y106.105 E0.20702
G1 X96.080 Y105.488 E0.01953
G1 X96.080 Y102.246 E0.10168
G1 X96.142 Y101.744 E0.01585
G1 X98.576 Y95.787 E0.20177
G1 X99.002 Y95.141 E0.02426
G1 X101.372 Y92.769 E0.10514
G1 X101.837 Y92.427 E0.01811
G1 X102.285 Y92.243 E0.01519
G1 F5760
G1 X103.000 Y92.121 E-0.25100
G1 F5760
G1 X104.469 Y92.121 E-0.50900
G1 E-0.04000 F2100.00000
G1 Z0.800 F7200.000
G1 X147.799 Y110.813 F7200.000
G1 Z0.200 F7200.000
G1 E0.80000 F2100.00000
G1 F1800
G1 X146.804 Y111.807 E0.04410
G1 X145.099 Y110.823 E0.06174
G1 X143.679 Y111.629 E0.05119
G1 X142.659 Y112.052 E0.03463
G1 X141.085 Y112.486 E0.05119
G1 X140.575 Y114.388 E0.06174
G1 X139.168 Y114.388 E0.04410
G1 X138.659 Y112.486 E0.06174
G1 X137.085 Y112.052 E0.05119
G1 X136.156 Y111.667 E0.03151
G1 X135.928 Y111.555 E0.00798
G1 X134.646 Y110.822 E0.04630
G1 X132.939 Y111.807 E0.06180
G1 X131.944 Y110.813 E0.04410
G1 X132.929 Y109.107 E0.06174
G1 X132.123 Y107.688 E0.05119
G1 X131.700 Y106.667 E0.03463
G1 X131.266 Y105.093 E0.05119
G1 X129.364 Y104.583 E0.06174
G1 X129.364 Y103.177 E0.04410
G1 X131.266 Y102.667 E0.06174
G1 X131.700 Y101.093 E0.05119
G1 X132.123 Y100.073 E0.03463
G1 X132.929 Y98.653 E0.05119
G1 X131.944 Y96.947 E0.06174
G1 X132.939 Y95.953 E0.04410
G1 X134.649 Y96.940 E0.06192
G1 X135.028 Y96.721 E0.01373
G1 X137.048 Y101.053 E0.14988
G1 X136.383 Y101.870 E0.03303
G1 X135.926 Y103.077 E0.04049
G1 X135.875 Y104.368 E0.04049
G1 X136.234 Y105.608 E0.04049
G1 X136.968 Y106.671 E0.04049
G1 X138.001 Y107.446 E0.04049
G1 X139.226 Y107.855 E0.04049
G1 X140.517 Y107.855 E0.04049
G1 X141.742 Y107.446 E0.04049
G1 X142.775 Y106.671 E0.04049
G1 X143.509 Y105.608 E0.04049
G1 X143.869 Y104.368 E0.04049
G1 X143.818 Y103.077 E0.04049
G1 X143.361 Y101.870 E0.04049
G1 X142.695 Y101.053 E0.03303
G1 X144.715 Y96.721 E0.14988
G1 X145.094 Y96.940 E0.01373
G1 X146.804 Y95.953 E0.06192
G1 X147.799 Y96.947 E0.04410
G1 X146.814 Y98.653 E0.06174
G1 X147.621 Y100.073 E0.05119
G1 X148.043 Y101.093 E0.03463
G1 X148.477 Y102.667 E0.05119
G1 X150.379 Y103.177 E0.06174
G1 X150.379 Y104.583 E0.04410
G1 X148.477 Y105.093 E0.06174
G1 X148.043 Y106.667 E0.05119
G1 X147.621 Y107.688 E0.03463
G1 X146.814 Y109.107 E0.05119
G1 X147.769 Y110.761 E0.05986
G1 F5760
G1 X146.804 Y111.807 E-0.49293
G1 F5760
G1 X146.137 Y111.422 E-0.26707
G1 E-0.04000 F2100.00000
G1 Z0.800 F7200.000
G1 X147.249 Y98.654 F7200.000
G1 Z0.200 F7200.000
G1 E0.80000 F2100.00000
G1 F1800
G1 X147.960 Y99.907 E0.04516
G1 X148.401 Y100.970 E0.03610
G1 X148.783 Y102.359 E0.04516
G1 X150.756 Y102.888 E0.06405
G1 X150.756 Y104.873 E0.06224
G1 X148.783 Y105.401 E0.06405
G1 X148.401 Y106.790 E0.04516
G1 X147.960 Y107.854 E0.03610
G1 X147.249 Y109.106 E0.04516
G1 X148.270 Y110.875 E0.06405
G1 X146.866 Y112.279 E0.06224
G1 X145.097 Y111.257 E0.06405
G1 X143.845 Y111.969 E0.04516
G1 X142.781 Y112.409 E0.03610
G1 X141.393 Y112.792 E0.04516
G1 X140.864 Y114.765 E0.06405
G1 X138.879 Y114.765 E0.06224
G1 X138.350 Y112.792 E0.06405
G1 X136.962 Y112.409 E0.04516
G1 X136.000 Y112.011 E0.03264
G1 X135.751 Y111.888 E0.00873
G1 X134.647 Y111.257 E0.03987
G1 X132.877 Y112.279 E0.06408
G1 X131.473 Y110.875 E0.06224
G1 X132.495 Y109.106 E0.06405
G1 X131.783 Y107.854 E0.04516
G1 X131.343 Y106.790 E0.03610
G1 X130.960 Y105.401 E0.04516
G1 X128.987 Y104.873 E0.06405
G1 X128.987 Y102.888 E0.06224
G1 X130.960 Y102.359 E0.06405
G1 X131.343 Y100.970 E0.04516
G1 X131.783 Y99.907 E0.03610
G1 X132.495 Y98.654 E0.04516
G1 X131.473 Y96.885 E0.06405
G1 X132.877 Y95.482 E0.06224
G1 X134.649 Y96.505 E0.06415
G1 X135.196 Y96.188 E0.01981
G1 X137.499 Y101.127 E0.17086
G1 X137.439 Y101.171 E0.00233
G1 X136.714 Y102.060 E0.03599
G1 X136.300 Y103.154 E0.03665
G1 X136.254 Y104.322 E0.03665
G1 X136.580 Y105.444 E0.03665
G1 X137.244 Y106.406 E0.03665
G1 X138.179 Y107.108 E0.03665
G1 X139.287 Y107.478 E0.03665
G1 X140.456 Y107.478 E0.03665
G1 X141.565 Y107.108 E0.03665
G1 X142.500 Y106.406 E0.03665
G1 X143.164 Y105.444 E0.03665
G1 X143.490 Y104.322 E0.03665
G1 X143.443 Y103.154 E0.03665
G1 X143.030 Y102.060 E0.03665
G1 X142.305 Y101.171 E0.03599
G1 X142.245 Y101.127 E0.00233
G1 X144.548 Y96.188 E0.17086
G1 X145.095 Y96.505 E0.01981
G1 X146.866 Y95.482 E0.06415
G1 X148.270 Y96.885 E0.06224
G1 X147.279 Y98.602 E0.06216
G1 X147.683 Y98.656 F7200.000
G1 F1800
G1 X148.300 Y99.741 E0.03912
G1 X148.758 Y100.848 E0.03757
G1 X149.089 Y102.051 E0.03912
G1 X151.133 Y102.598 E0.06635
G1 X151.133 Y105.162 E0.08039
G1 X149.089 Y105.710 E0.06635
G1 X148.758 Y106.913 E0.03912
G1 X148.300 Y108.020 E0.03757
G1 X147.683 Y109.104 E0.03912
G1 X148.741 Y110.937 E0.06635
G1 X146.928 Y112.750 E0.08039
G1 X145.096 Y111.692 E0.06635
G1 X144.011 Y112.308 E0.03912
G1 X142.904 Y112.767 E0.03757
G1 X141.701 Y113.098 E0.03912
G1 X141.154 Y115.142 E0.06635
G1 X138.590 Y115.142 E0.08039
G1 X138.042 Y113.098 E0.06635
G1 X136.839 Y112.767 E0.03912
G1 X135.845 Y112.355 E0.03376
G1 X135.574 Y112.221 E0.00948
G1 X134.648 Y111.692 E0.03343
G1 X132.815 Y112.750 E0.06636
G1 X131.002 Y110.937 E0.08039
G1 X132.060 Y109.104 E0.06635
G1 X131.444 Y108.020 E0.03912
G1 X130.985 Y106.913 E0.03757
G1 X130.654 Y105.710 E0.03912
G1 X128.610 Y105.162 E0.06635
G1 X128.610 Y102.598 E0.08039
G1 X130.654 Y102.051 E0.06635
G1 X130.985 Y100.848 E0.03912
G1 X131.029 Y100.742 E0.00359
G1 X131.444 Y99.741 E0.03398
G1 X132.060 Y98.656 E0.03912
G1 X131.002 Y96.823 E0.06635
G1 X132.815 Y95.010 E0.08039
G1 X134.649 Y96.069 E0.06638
G1 X135.363 Y95.655 E0.02590
G1 X137.971 Y101.247 E0.19346
G1 X137.701 Y101.446 E0.01051
G1 X137.045 Y102.251 E0.03257
G1 X136.674 Y103.230 E0.03281
G1 X136.633 Y104.275 E0.03281
G1 X136.925 Y105.280 E0.03281
G1 X137.519 Y106.141 E0.03281
G1 X138.356 Y106.769 E0.03281
G1 X139.349 Y107.101 E0.03281
G1 X140.395 Y107.101 E0.03281
G1 X141.387 Y106.769 E0.03281
G1 X142.224 Y106.141 E0.03281
G1 X142.819 Y105.280 E0.03281
G1 X143.110 Y104.275 E0.03281
G1 X143.069 Y103.230 E0.03281
G1 X142.699 Y102.251 E0.03281
G1 X142.042 Y101.446 E0.03257
G1 X141.773 Y101.247 E0.01051
G1 X144.380 Y95.655 E0.19346
G1 X145.095 Y96.069 E0.02590
G1 X146.928 Y95.010 E0.06638
G1 X148.741 Y96.823 E0.08039
G1 X147.713 Y98.604 E0.06447
G1 X147.446 Y98.978 F7200.000
G1 X147.024 Y99.251 F7200.000
G1 F1800
G1 X144.965 Y97.192 E0.09169
G1 X145.094 Y97.267 E0.00469
G1 X145.399 Y97.091 E0.01109
G1 X146.661 Y98.353 E0.05619
G1 X146.857 Y98.013 E0.01234
G1 X145.739 Y96.895 E0.04980
G1 X146.078 Y96.699 E0.01234
G1 X147.053 Y97.674 E0.04341
G1 X147.249 Y97.334 E0.01234
G1 X146.418 Y96.503 E0.03702
G1 X146.757 Y96.307 E0.01234
G1 X147.569 Y97.119 E0.03617
G1 F5760
G1 X146.757 Y96.307 E-0.39783
G1 F5760
G1 X146.418 Y96.503 E-0.13578
G1 F5760
G1 X146.880 Y96.965 E-0.22639
G1 E-0.04000 F2100.00000
G1 Z0.800 F7200.000
G1 X147.632 Y100.394 F7200.000
G1 Z0.200 F7200.000
G1 E0.80000 F2100.00000
G1 F1800
G1 X144.687 Y97.450 E0.13111
G1 X144.517 Y97.815 E0.01269
G1 X147.697 Y100.995 E0.14159
G1 X147.776 Y101.185 E0.00648
G1 X147.937 Y101.771 E0.01912
G1 X144.347 Y98.180 E0.15986
G1 X144.176 Y98.546 E0.01269
G1 X148.140 Y102.510 E0.17651
G1 X148.247 Y102.898 E0.01270
G1 X148.632 Y103.002 E0.01254
G1 X150.018 Y104.387 E0.06171
G1 X149.596 Y104.501 E0.01377
G1 X144.006 Y98.911 E0.24890
G1 X143.836 Y99.276 E0.01269
G1 X149.173 Y104.614 E0.23767
G1 X148.751 Y104.727 E0.01377
G1 X143.666 Y99.641 E0.22645
G1 X143.495 Y100.007 E0.01269
G1 X148.329 Y104.840 E0.21523
G1 X148.247 Y104.862 E0.00265
G1 X148.154 Y105.201 E0.01107
G1 X143.325 Y100.372 E0.21503
G1 X143.155 Y100.737 E0.01269
G1 X148.038 Y105.621 E0.21747
G1 X147.923 Y106.041 E0.01371
G1 X143.609 Y101.727 E0.19208
G1 X143.935 Y102.588 E0.02900
G1 X147.807 Y106.460 E0.17242
G1 X147.662 Y106.850 E0.01310
G1 X144.109 Y103.298 E0.15817
G1 X144.132 Y103.856 E0.01757
G1 X147.505 Y107.229 E0.15020
G1 X147.343 Y107.603 E0.01283
G1 X144.151 Y104.411 E0.14216
G1 X144.030 Y104.826 E0.01361
G1 X147.149 Y107.945 E0.13889
G1 X146.955 Y108.286 E0.01237
G1 X143.910 Y105.241 E0.13561
G1 X143.790 Y105.656 E0.01361
G1 X146.761 Y108.628 E0.13234
G1 X146.567 Y108.969 E0.01237
G1 X143.588 Y105.990 E0.13265
G1 X143.370 Y106.307 E0.01212
G1 X147.386 Y110.323 E0.17882
G1 X147.489 Y110.962 F7200.000
G1 F1800
G1 X143.151 Y106.624 E0.19319
G1 X142.981 Y106.869 E0.00938
G1 X142.912 Y106.921 E0.00272
G1 X147.102 Y111.110 E0.18654
G1 X146.834 Y111.378 E0.01192
G1 X142.607 Y107.151 E0.18823
G1 X142.301 Y107.380 E0.01204
G1 X145.851 Y110.930 E0.15807
G1 X145.100 Y110.497 E0.02729
G1 X144.961 Y110.576 E0.00504
G1 X141.995 Y107.610 E0.13207
G1 X141.875 Y107.700 E0.00471
G1 X141.631 Y107.781 E0.00812
G1 X144.619 Y110.770 E0.13307
G1 X144.278 Y110.964 E0.01237
G1 X141.229 Y107.915 E0.13575
G1 X140.828 Y108.049 E0.01333
G1 X143.936 Y111.158 E0.13842
G1 X143.595 Y111.352 E0.01237
G1 X140.381 Y108.138 E0.14313
G1 X139.845 Y108.138 E0.01686
G1 X143.221 Y111.513 E0.15031
G1 X142.842 Y111.670 E0.01291
G1 X139.310 Y108.138 E0.15729
G1 X139.180 Y108.138 E0.00408
G1 X138.571 Y107.934 E0.02023
G1 X142.452 Y111.816 E0.17283
G1 X142.032 Y111.931 E0.01371
G1 X131.821 Y101.720 E0.45470
G1 X131.936 Y101.300 E0.01371
G1 X135.816 Y105.179 E0.17274
G1 X135.597 Y104.425 E0.02474
G1 X132.082 Y100.910 E0.15650
G1 X132.239 Y100.531 E0.01291
G1 X135.610 Y103.903 E0.15012
G1 X135.630 Y103.387 E0.01623
G1 X132.400 Y100.157 E0.14385
G1 X132.594 Y99.815 E0.01237
G1 X135.687 Y102.909 E0.13774
G1 X135.834 Y102.520 E0.01308
G1 X132.788 Y99.474 E0.13565
G1 X132.982 Y99.132 E0.01237
G1 X135.981 Y102.132 E0.13355
G1 X136.128 Y101.743 E0.01308
G1 X133.176 Y98.791 E0.13146
G1 X133.255 Y98.652 E0.00504
G1 X132.822 Y97.901 E0.02729
G1 X136.485 Y101.565 E0.16314
G1 F5760
G1 X134.934 Y100.013 E-0.76000
G1 E-0.04000 F2100.00000
G1 Z0.800 F7200.000
G1 X135.414 Y97.816 F7200.000
G1 Z0.200 F7200.000
G1 E0.80000 F2100.00000
G1 F1800
G1 X134.786 Y97.188 E0.02796
G1 X134.649 Y97.267 E0.00497
G1 X133.892 Y96.830 E0.02752
G1 X135.531 Y98.468 E0.07296
G1 X135.999 Y99.472 E0.03486
G1 X132.909 Y96.382 E0.13757
G1 X132.642 Y96.650 E0.01192
G1 X136.467 Y100.475 E0.17032
G1 X136.717 Y101.012 E0.01864
G1 X136.605 Y101.149 E0.00558
G1 X132.254 Y96.798 E0.19375
G1 F5760
G1 X133.806 Y98.350 E-0.76000
G1 E-0.04000 F2100.00000
G1 Z0.800 F7200.000
G1 X129.477 Y104.196 F7200.000
G1 Z0.200 F7200.000
G1 E0.80000 F2100.00000
G1 F1800
G1 X129.648 Y104.367 E0.00760
G1 X130.379 Y104.563 E0.02385
G1 X129.647 Y103.830 E0.03262
G1 X129.647 Y103.394 E0.01374
G1 X129.725 Y103.373 E0.00255
G1 X131.351 Y104.999 E0.07239
G1 F5760
G1 X129.799 Y103.447 E-0.76000
G1 E-0.04000 F2100.00000
G1 Z0.800 F7200.000
G1 X133.110 Y111.578 F7200.000
G1 Z0.200 F7200.000
G1 E0.80000 F2100.00000
G1 F1800
G1 X132.298 Y110.766 E0.03616
G1 X132.494 Y110.426 E0.01234
G1 X133.326 Y111.258 E0.03702
G1 X133.665 Y111.062 E0.01234
G1 X132.690 Y110.087 E0.04341
G1 X132.886 Y109.747 E0.01234
G1 X134.005 Y110.866 E0.04980
G1 X134.344 Y110.670 E0.01234
G1 X133.082 Y109.408 E0.05619
G1 X133.255 Y109.109 E0.01087
G1 X133.171 Y108.961 E0.00535
G1 X135.243 Y111.033 E0.09227
G1 F5760
G1 X133.692 Y109.481 E-0.76000
G1 E-0.04000 F2100.00000
G1 Z0.800 F7200.000
G1 X136.386 Y111.640 F7200.000
G1 Z0.200 F7200.000
G1 E0.80000 F2100.00000
G1 F1800
G1 X132.467 Y107.721 E0.17450
G1 X132.377 Y107.563 E0.00571
G1 X132.047 Y106.765 E0.02719
G1 X136.986 Y111.705 E0.21996
G1 X137.177 Y111.784 E0.00648
G1 X137.762 Y111.945 E0.01911
G1 X131.807 Y105.990 E0.26518
G1 X131.603 Y105.251 E0.02414
G1 X138.744 Y112.392 E0.31797
G1 F5760
G1 X137.192 Y110.840 E-0.76000
G1 E-0.04000 F2100.00000
G1 Z0.800 F7200.000
G1 X139.145 Y113.864 F7200.000
G1 Z0.200 F7200.000
G1 E0.80000 F2100.00000
G1 F1800
G1 X139.386 Y114.105 E0.01073
G1 X139.922 Y114.105 E0.01686
G1 X139.189 Y113.372 E0.03262
G1 X138.993 Y112.641 E0.02385
G1 X140.379 Y114.027 E0.06171
G1 X140.492 Y113.604 E0.01377
G1 X130.148 Y103.260 E0.46062
G1 X130.570 Y103.147 E0.01377
G1 X140.605 Y113.182 E0.44686
G1 X140.718 Y112.760 E0.01377
G1 X130.992 Y103.033 E0.43309
G1 X131.415 Y102.920 E0.01377
G1 X140.832 Y112.337 E0.41932
G1 X140.853 Y112.256 E0.00265
G1 X141.192 Y112.163 E0.01107
G1 X131.589 Y102.559 E0.42761
G1 X131.705 Y102.140 E0.01371
G1 X141.750 Y112.185 E0.44730
G1 F5760
G1 X140.199 Y110.633 E-0.76000
G1 E-0.04000 F2100.00000
G1 Z0.800 F7200.000
G1 X150.266 Y104.100 F7200.000
G1 Z0.200 F7200.000
G1 E0.80000 F2100.00000
G1 F1800
G1 X149.364 Y103.198 E0.04018
G1 X150.095 Y103.394 E0.02385
G1 X150.266 Y103.564 E0.00760
G1 F5760
G1 X150.095 Y103.394 E-0.08365
G1 F5760
G1 X149.364 Y103.198 E-0.26230
G1 F5760
G1 X150.209 Y104.043 E-0.41404
G1 E-0.04000 F2100.00000
G1 Z0.800 F7200.000
G1 X117.071 Y98.653 F7200.000
G1 Z0.200 F7200.000
G1 E0.80000 F2100.00000
G1 F1800
G1 X117.877 Y100.073 E0.05119
G1 X118.300 Y101.093 E0.03463
G1 X118.734 Y102.667 E0.05119
G1 X120.636 Y103.177 E0.06174
G1 X120.636 Y104.583 E0.04410
G1 X118.734 Y105.093 E0.06174
G1 X118.300 Y106.667 E0.05119
G1 X117.877 Y107.688 E0.03463
G1 X117.071 Y109.107 E0.05119
G1 X118.056 Y110.813 E0.06174
G1 X117.061 Y111.807 E0.04410
G1 X115.356 Y110.823 E0.06174
G1 X113.936 Y111.629 E0.05119
G1 X112.915 Y112.052 E0.03463
G1 X111.341 Y112.486 E0.05119
